assets/images/content/vk.svg

<svg width="32" height="22" viewBox="0 0 32 22" fill="none" xmlns="http://www.w3.org/2000/svg">
<path d="M6.41731 1.44806C7.12285 1.44806 6.10524 2.66814 7.39083 6.84195C7.90303 8.5032 8.69338 10.3816 10.1113 11.6327C11.9972 13.2905 12.255 12.4116 12.255 10.8676C12.255 9.32349 12.255 4.86017 11.8242 3.69178C11.3935 2.52339 10.6031 2.47169 11.0305 1.53422C11.3053 0.927622 13.4355 1.02068 15.2774 1.02068C17.1192 1.02068 18.1029 0.810438 18.1029 2.31315C18.1029 3.81585 18.1029 8.48941 18.1029 9.53028C18.1029 10.5711 18.8085 11.3673 20.457 9.32004C22.1056 7.27277 23.6727 3.98129 24.0662 3.06105C24.4597 2.14082 24.7683 1 26.3388 1H29.3612C30.5077 1 31.0674 1.58592 30.0667 3.69178C30.0667 3.69178 27.5023 8.41704 26.6916 9.63712C25.3382 11.6809 25.1415 11.8498 26.7696 13.58C28.0247 14.9138 29.5511 17.0645 30.5111 18.6706C31.142 19.7253 31.3727 20.966 29.6868 20.966C26.9799 20.966 29.1373 20.966 26.4304 20.966C24.6259 20.966 24.5445 20.1768 22.8959 18.2088C21.1524 16.1236 20.3519 15.4791 19.8906 15.2344C18.9781 14.7484 18.0995 14.7105 18.0995 16.6716C18.0995 19.8838 18.6864 20.9695 16.3526 20.9695C13.8018 20.9695 9.42267 21.0522 5.57947 16.7302C0.389623 10.8848 0.342134 1.44806 1.87874 1.44806C1.87874 1.44806 5.71176 1.44806 6.41731 1.44806Z" stroke="#0b1f35" stroke-width="1.5" stroke-miterlimit="10" stroke-linecap="round" stroke-linejoin="round"/>
</svg>

<svg width="32" height="22" fill="none" xmlns="http://www.w3.org/2000/svg"><path d="M6.417 1.448c.706 0-.312 1.22.974 5.394.512 1.661 1.302 3.54 2.72 4.79 1.886 1.659 2.144.78 2.144-.764 0-1.545 0-6.008-.43-7.176-.431-1.169-1.222-1.22-.794-2.158.274-.606 2.404-.513 4.246-.513 1.842 0 2.826-.21 2.826 1.292V9.53c0 1.041.705 1.837 2.354-.21s3.216-5.339 3.61-6.259c.393-.92.7-2.061 2.271-2.061h3.022c1.147 0 1.706.586.706 2.692 0 0-2.565 4.725-3.375 5.945-1.354 2.044-1.55 2.213.078 3.943 1.255 1.334 2.781 3.484 3.741 5.09.631 1.055.862 2.296-.824 2.296H26.43c-1.804 0-1.886-.79-3.534-2.757-1.744-2.085-2.544-2.73-3.005-2.975-.913-.486-1.791-.524-1.791 1.438 0 3.212.586 4.297-1.747 4.297-2.551 0-6.93.083-10.774-4.239C.39 10.885.342 1.448 1.88 1.448h4.538z" stroke="#FFF" stroke-width="1.5" stroke-miterlimit="10" stroke-linecap="round" stroke-linejoin="round"/></svg>
